X:32
T:Dill Pickle Rag
C:Tiny Moore
M:4/4
L:1/8
Q:1/8=480
K:G
Bc^c|degd egde|gded gedB|GABG ABGA|BGAd BAGE|
CDFC DFCD|FCDC FDCF|GFGA BAGB|A^GA2 d2B/c/^c|
degd egde|gded gedB|GABG ABGA|BGAG BAGE|
CDFC DFCD|FCDC FDCF|GFG^A =AGED|G3D EG^D2|
D2^D2 E2F2|G2ed2ed2|F2ed2ed2|G2ed2ed2|
D2^D2 E2F2|G2ed2ed2|fefe afe2|d3D E2^D2|
D2^D2 E2F2|G2ed2ed2|F2ed2ed2|G2ed2ed2|
D2^D2 E2F2|G2ed2ed2|BABA dBd2|[g6B6D6G,6]G,2|
[g4c4E4G,4] zag2|eed2 c4|e2ge zBd2|[c4E4] za^ab|
c'abd' c'bae|gfga g=fec|d^cde fed2|G,[gBD]z2 [g4B4D4]|
c'2bd' c'bae|gfga g=fed|cAd^d =dcAG|[cE][cE]z[c2E2]D^DE|
=FEFG A^GAB|cBcd ed=f^f|gd=fg eBd2|[c4E4] z2D/E/F|
GABd gdgd|bgdc BAGE|G/F/=FEB, DC^CE|GBAG2E=FD|
F2dA e2d^A|AGED FGAF|GB2G Bc^ce|dddd z2B/c/^c|
degd eade|bdeb ageB|G2GF EB,DC|^C2A,B, CEGE|
F3D EFGA|Bc^cA dAd2|eAd^A =AGED|G3E2E^D2|
D2FA cedc|B2a2 gdBG|cAGF eFdc|BGE2 GFE^D|
DD^D2 EFGG|z2DE GABd|^c=c^cd edeg|fed^c =cBFG|
D2CB, A,B,CA,|B,CDF AGz2|FDE/F/E DCB,A,|G,B,DF GBGE|
DD^D2 EFGA|BedB AGED|cAd^A =AGED|G6E2|
[g2c2E2][g2c2E2] zag2|eBdc AG=FD|gf=f^d ecAG|cAG=F ECz2|
z2Ed2Ecd|cAG=F ECEC|D^CD=F ^FAcd|B2B/c/B AGF=F|
E2[g2c2E2] zag2|edcG Bcz2|^dc=d^d =dcAG|cAG=F ECDE|
=FEFG AGBG|cde=f gef^f|gf=f^d ecAG|c8|
